assets/time-rewind.svg

<?xml version="1.0" encoding="UTF-8"?>
<svg xmlns="http://www.w3.org/2000/svg" xmlns:xlink="http://www.w3.org/1999/xlink" width="150px" height="150px" viewBox="0 0 150 150" version="1.1">
<g id="surface1">
<path style="fill:none;stroke-width:1;stroke-linecap:round;stroke-linejoin:round;stroke:rgb(0%,0%,0.392157%);stroke-opacity:1;stroke-miterlimit:4;" d="M 0.499844 7 C 0.499844 8.285521 0.881198 9.542239 1.595417 10.611198 C 2.309635 11.680156 3.325 12.513229 4.512448 13.005052 C 5.70026 13.497239 7.007291 13.625937 8.268021 13.375104 C 9.529114 13.12427 10.687031 12.505208 11.596302 11.596302 C 12.505208 10.687031 13.12427 9.529114 13.375104 8.268021 C 13.625937 7.007291 13.497239 5.70026 13.005052 4.512448 C 12.513229 3.325 11.680156 2.309635 10.611198 1.595417 C 9.542239 0.881198 8.285521 0.499844 7 0.499844 C 5.138073 0.498021 3.346875 1.214427 2.000104 2.499948 " transform="matrix(10.714286,0,0,10.714286,0,0)"/>
<path style="fill:none;stroke-width:1;stroke-linecap:round;stroke-linejoin:round;stroke:rgb(0%,0%,0.392157%);stroke-opacity:1;stroke-miterlimit:4;" d="M 2.499948 0.499844 L 2.000104 2.499948 L 3.999844 3.000156 " transform="matrix(10.714286,0,0,10.714286,0,0)"/>
<path style="fill:none;stroke-width:1;stroke-linecap:round;stroke-linejoin:round;stroke:rgb(0%,0%,0.392157%);stroke-opacity:1;stroke-miterlimit:4;" d="M 7 3.5 L 7 7.499844 L 4.400156 8.799948 " transform="matrix(10.714286,0,0,10.714286,0,0)"/>
</g>
</svg>

<svg fill="none" height="14" viewBox="0 0 14 14" width="14" xmlns="http://www.w3.org/2000/svg"><clipPath id="a"><path d="m0 0h14v14h-14z"/></clipPath><g clip-path="url(#a)" stroke="#000001" stroke-linecap="round" stroke-linejoin="round"><path d="m.5 7c0 1.28558.381218 2.54229 1.09545 3.6112.71423 1.0689 1.72939 1.9021 2.91711 2.394 1.18772.492 2.49465.6207 3.75553.3699 1.26087-.2508 2.41911-.8699 3.32811-1.7789s1.5281-2.06723 1.7789-3.32811c.2508-1.26087.1221-2.56781-.3699-3.75553s-1.3251-2.20288-2.394-2.91711c-1.06891-.714227-2.32562-1.095446-3.6112-1.095446-1.86203-.00206-3.65306.714356-5 1.999996"/><path d="m2.5.5-.5 2 2 .5"/><path d="m7.00002 3.5v4l-2.6 1.3"/></g></svg>
